app/assets/images/Contenido/Odin/Belleza.svg

<svg fill="none" height="130" viewBox="0 0 117 130" width="117" xmlns="http://www.w3.org/2000/svg"><circle cx="57.8345" cy="45.4964" r="44.3397" stroke="#000" stroke-width="2.31337"/><g fill="#000"><path d="m33.1439 117.48c1.5234.487 2.5593 1.685 2.5593 3.534 0 2.437-1.9093 3.859-5.5654 3.859h-7.0685v-14.218h6.6622c3.4124 0 5.2404 1.442 5.2404 3.697 0 1.462-.7312 2.539-1.828 3.128zm-3.6967-4.753h-3.7373v3.92h3.7373c1.828 0 2.8639-.65 2.8639-1.95 0-1.32-1.0359-1.97-2.8639-1.97zm.5281 10.074c1.9905 0 3.067-.629 3.067-2.051s-1.0765-2.052-3.067-2.052h-4.2654v4.103zm18.4986-3.29c0 .203-.0203.508-.0406.751h-8.5106c.3047 1.585 1.625 2.6 3.5139 2.6 1.2187 0 2.1734-.386 2.9452-1.178l1.3609 1.564c-.975 1.158-2.4983 1.767-4.367 1.767-3.6358 0-5.9919-2.336-5.9919-5.565 0-3.23 2.3764-5.545 5.606-5.545 3.1686 0 5.4841 2.214 5.4841 5.606zm-5.4841-3.575c-1.6453 0-2.8436 1.056-3.0874 2.64h6.1544c-.2031-1.564-1.4015-2.64-3.067-2.64zm7.9229 8.937v-15.071h2.539v15.071zm5.8713 0v-15.071h2.539v15.071zm16.0678-5.362c0 .203-.0203.508-.0407.751h-8.5105c.3047 1.585 1.6249 2.6 3.5139 2.6 1.2187 0 2.1733-.386 2.9452-1.178l1.3609 1.564c-.975 1.158-2.4984 1.767-4.367 1.767-3.6358 0-5.992-2.336-5.992-5.565 0-3.23 2.3765-5.545 5.606-5.545 3.1687 0 5.4842 2.214 5.4842 5.606zm-5.4842-3.575c-1.6452 0-2.8436 1.056-3.0873 2.64h6.1544c-.2031-1.564-1.4015-2.64-3.0671-2.64zm10.1596 6.906h6.1341v2.031h-9.3636v-1.605l5.9513-7.21h-5.8294v-2.031h9.0793v1.604zm12.6181-8.937c3.128 0 4.9358 1.482 4.9358 4.61v6.358h-2.3968v-1.32c-.6094.934-1.7874 1.462-3.4124 1.462-2.478 0-4.042-1.361-4.042-3.25 0-1.807 1.2187-3.229 4.5092-3.229h2.803v-.163c0-1.482-.8937-2.356-2.7014-2.356-1.2187 0-2.478.406-3.2905 1.077l-.9953-1.849c1.1578-.893 2.8436-1.34 4.5904-1.34zm-.3453 9.262c1.2391 0 2.3156-.569 2.7421-1.686v-1.259h-2.6202c-1.7265 0-2.1936.65-2.1936 1.442 0 .914.7718 1.503 2.0717 1.503z"/><path d="m74.0128 58.3999c-.4373-.2341-.9821-.0697-1.2165.3677-.3806.7104-.8209 1.3867-1.3124 2.0227-1.127-1.4247-2.7152-2.4794-4.5812-2.9403l-4.4522-1.1002v-3.7068c1.3914-.8173 2.7148-1.8857 3.8867-3.1644.3353-.3659.3105-.9343-.0554-1.2697-.3658-.3352-.9341-.3105-1.2697.0554-2.5017 2.7296-5.8734 4.4254-8.7995 4.4254-1.6508 0-3.2401-.4481-4.7069-1.2149-.1172-.1164-.2664-.2-.433-.2379-3.2792-1.8848-5.8937-5.3511-7.1254-8.8776 5.0666-1.0026 9.2074-3.8788 11.8524-6.1932 2.2703-1.9864 4.2821-4.3182 5.6755-6.5248.7951 4.7634 3.0151 9.3136 7.4638 11.1379-.3948 1.6527-1.0132 3.2115-1.8425 4.6431-.2489.4294-.1024.9792.3269 1.228.4296.2488.9793.1023 1.228-.327.8976-1.5492 1.5701-3.2308 2.0065-5.0102.4296.0964.8711.1705 1.3256.2194.4944.054.9365-.304.9896-.7974.053-.4934-.304-.9365-.7974-.9896-.8239-.0885-1.5961-.2675-2.3159-.5363-.0006-.0002-.0012-.0005-.0018-.0006-.1022-.0382-.2032-.0781-.3033-.1199-.0007-.0003-.0013-.0006-.002-.0008-2.8707-1.1996-4.5839-3.7708-5.5676-6.7354-.0051-.0151-.0101-.0302-.0151-.0454-.9789-2.9773-.9959-5.7314-.9959-5.7599 0-.4318-.3076-.8032-.7322-.8835-.4255-.0804-.8459.1528-1.0036.555-2.0914 5.333-9.9882 13.3144-18.5821 14.5383-.0067.001-.0132.0028-.0198.004-.7461.1043-1.5099.1629-2.2905.1629-.4963 0-.8986.4022-.8986.8986s.4023.8986.8986.8986c.6027 0 1.2008-.0317 1.7936-.0915 1.3638 4.2671 3.8376 6.9835 5.7247 8.5342.6754.555 1.3835 1.0471 2.1101 1.4721v3.7013l-4.5078 1.1135c-.5452.1349-1.0694.3212-1.5696.5568v-5.5357c0-1.5557-1.8954-3.2019-3.5183-4.1388-1.1261-.6503-2.3003-1.0886-3.3062-1.2343-1.732-.2504-2.413.4413-2.666.8789-.1465.2552-.2208.5414-.2208.8506v11.5388c-.6997.3343-1.1856 1.047-1.1856 1.8727v4.2056c0 .4964.4023.8986.8986.8986s.8986-.4022.8986-.8986v-.9317h8.4878v7.3562c0 .154-.1252.2792-.2792.2792h-7.9294c-.154 0-.2792-.1252-.2792-.2792v-2.8301c0-.4964-.4023-.8986-.8986-.8986s-.8986.4022-.8986.8986v2.8301c0 1.1449.9314 2.0764 2.0764 2.0764h7.9294c1.145 0 2.0764-.9315 2.0764-2.0764v-2.4244h27.5756c.2482 0 .4853-.1025.6552-.2834.1699-.181.2572-.4241.2418-.6716l-.278-4.408c-.0688-1.0925-.3444-2.13-.7892-3.0733.7243-.8615 1.3604-1.7977 1.8934-2.7926.2339-.4375.0693-.9822-.3682-1.2166zm-31.9202-5.5852c-.3577.1305-1.7055.0283-3.4918-1.0032-1.7347-1.0014-2.5351-2.1032-2.6119-2.5255 1.5442-.5632 5.8898 2.2731 6.1037 3.5287zm-6.11-.665c.5439.4708 1.1484.8886 1.7195 1.2182 1.2313.711 2.9977 1.4198 4.3973 1.2657v5.9292h-6.1169zm7.3021 11.966h-8.4878v-1.4764c0-.154.1252-.2792.2791-.2792 7.3216.0002 7.8867.0002 7.9204.0002h.0016c.0016 0 .0031-.0002.0047-.0002h.0029c.1539 0 .2791.1252.2791.2792zm1.7972 4.9324v-4.0291c0-.0015.0002-.003.0002-.0046 0-.0017-.0002-.003-.0002-.0047v-2.3704c0-.8258-.4856-1.5382-1.1854-1.8726v-.3062c.6129-.3964 1.2837-.6882 2.0011-.8658l4.7879-1.1825c.6392-.158 1.0857-.7282 1.0857-1.3864v-3.0928c1.4901.6206 3.008.9538 4.4413.9538 1.4542 0 2.9646-.3309 4.4405-.9453v3.0974c0 .6572.4458 1.2272 1.0858 1.3864l4.7327 1.1694c1.7771.439 3.2342 1.5623 4.1134 3.0587.0231.0513.0513.1006.0843.1475.464.8385.7498 1.787.8134 2.7943l.2177 3.4529z"/><path d="m77.3442 22.1081c-2.1046-.5712-2.7581-1.2245-3.3291-3.3294-.1685-.6203-.7137-1.0369-1.3567-1.0369-.6429 0-1.1882.4167-1.3567 1.0371-.1636.6034-.3363 1.0767-.5357 1.459-.1125-.1181-.2259-.2353-.3412-.3506-3.7967-3.7966-8.8439-5.8874-14.2119-5.8874-11.0828 0-20.0991 9.0164-20.0991 20.0991v10.8194c0 .4963.4023.8986.8986.8986s.8986-.4022.8986-.8986v-10.8194c0-10.0917 8.2101-18.3018 18.3019-18.3018 4.888 0 9.4837 1.904 12.9408 5.361.1217.1216.2412.2458.3594.3708-.3949.2174-.8922.403-1.5409.5791-.6203.1685-1.0369.7138-1.0369 1.3567s.4167 1.1882 1.0371 1.3567c2.1046.571 2.7581 1.2244 3.3293 3.33.1686.6193.7138 1.0354 1.3565 1.0354.4175 0 .793-.1763 1.0518-.4695.5338 1.7326.8047 3.5346.8047 5.3816v8.0037c0 .4964.4023.8986.8986.8986.4964 0 .8987-.4022.8987-.8986v-8.0037c0-2.6929-.5229-5.2999-1.5534-7.7571.4948-.7321 1.2249-1.151 2.5857-1.5204l.0005-.0003c.6194-.1686 1.0355-.7137 1.0355-1.3564s-.4161-1.1879-1.0361-1.3567zm-4.3889 3.7562c-.0019.0039-.0038.0078-.0058.0117-.001.0018-.002.0036-.0028.0055-.102.1975-.1983.4106-.2896.6418-.6144-1.5456-1.5129-2.4437-3.0584-3.0579.7923-.3133 1.3913-.6904 1.8729-1.1701.0033-.0032.0062-.0066.0093-.0099.0042-.0044.0082-.0087.0124-.0131.4776-.4822.8537-1.0796 1.1654-1.8672.6137 1.5447 1.5111 2.443 3.0541 3.0573-1.1712.4594-2.1 1.1384-2.7575 2.4019z"/><path d="m85.492 64.8214-3.4784-9.5568c-.0999-.2746-.2623-.5146-.4721-.7062l.9669-7.5947c.1371-1.0751-.2867-2.121-1.1334-2.7976-.8466-.6766-1.9602-.8594-2.9789-.4886l-2.2315.8122c-.0023.0009-.0047.0012-.0069.0021l-3.2488 1.1824c-.0021.0007-.0041.0019-.0062.0026l-2.2319.8124c-1.0185.3708-1.7541 1.2264-1.9679 2.289-.2136 1.0626.134 2.1362.93 2.8718l5.6225 5.1962c-.0376.2816-.0077.5698.0922.8445l1.0575 2.9053c.0002.0004.0003.0008.0004.0013.0001.0002.0002.0004.0004.0007l2.4201 6.6493c1.0714 2.9445 5.2094 3.1562 6.5476.286.4004-.8584.4425-1.8216.1184-2.7119zm-9.1272-9.3967-5.5122-5.0942c-.337-.3114-.4781-.7478-.3877-1.1976.0905-.4498.3895-.7976.8206-.9545l.6656-.2423c.0864.7683.3755 1.6173.8273 2.3335l1.0136 1.6071c.1708.271.4626.4194.7609.4194.1638 0 .3297-.0448.4786-.1387.4197-.2647.5455-.8196.2807-1.2395l-1.0135-1.6072c-.4968-.7874-.6143-1.6719-.5713-2.0211l2.8419-1.0344c.2575.2399.736.993.8616 1.9156l.2566 1.8826c.0672.4917.5223.8362 1.0118.7691.4917-.0671.836-.5202.7691-1.0118l-.2567-1.8825c-.1144-.8392-.4386-1.6754-.8663-2.3194.3408-.0461 1.1106-.6758 1.9077-.0386.3584.2864.5307.7115.4726 1.1665l-.948 7.4458c-.017.0056-.0341.0097-.051.0158l-3.3126 1.2057c-.017.0061-.0328.0141-.0493.0207zm.823 2.0674 3.2883-1.1968.5991 1.6461-3.2883 1.1969zm4.2316 10.1282c-.4235-.1975-.7449-.5482-.9047-.9874l-2.1131-5.8057 3.2884-1.1968 2.1132 5.8057c.5361 1.4728-.9859 2.8358-2.3838 2.1842z"/></g></svg>

<svg width="117" height="130" viewBox="0 0 117 130" fill="none" xmlns="http://www.w3.org/2000/svg">
<circle cx="57.8345" cy="45.4964" r="44.3397" stroke="black" stroke-width="2.31337"/>
<path d="M33.1439 117.48C34.6673 117.967 35.7032 119.165 35.7032 121.014C35.7032 123.451 33.7939 124.873 30.1378 124.873H23.0693V110.655H29.7315C33.1439 110.655 34.9719 112.097 34.9719 114.352C34.9719 115.814 34.2407 116.891 33.1439 117.48ZM29.4472 112.727H25.7099V116.647H29.4472C31.2752 116.647 32.3111 115.997 32.3111 114.697C32.3111 113.377 31.2752 112.727 29.4472 112.727ZM29.9753 122.801C31.9658 122.801 33.0423 122.172 33.0423 120.75C33.0423 119.328 31.9658 118.698 29.9753 118.698H25.7099V122.801H29.9753ZM48.4739 119.511C48.4739 119.714 48.4536 120.019 48.4333 120.262H39.9227C40.2274 121.847 41.5477 122.862 43.4366 122.862C44.6553 122.862 45.61 122.476 46.3818 121.684L47.7427 123.248C46.7677 124.406 45.2444 125.015 43.3757 125.015C39.7399 125.015 37.3838 122.679 37.3838 119.45C37.3838 116.22 39.7602 113.905 42.9898 113.905C46.1584 113.905 48.4739 116.119 48.4739 119.511ZM42.9898 115.936C41.3445 115.936 40.1462 116.992 39.9024 118.576H46.0568C45.8537 117.012 44.6553 115.936 42.9898 115.936ZM50.9127 124.873V109.802H53.4517V124.873H50.9127ZM56.784 124.873V109.802H59.323V124.873H56.784ZM72.8518 119.511C72.8518 119.714 72.8315 120.019 72.8111 120.262H64.3006C64.6053 121.847 65.9255 122.862 67.8145 122.862C69.0332 122.862 69.9878 122.476 70.7597 121.684L72.1206 123.248C71.1456 124.406 69.6222 125.015 67.7536 125.015C64.1178 125.015 61.7616 122.679 61.7616 119.45C61.7616 116.22 64.1381 113.905 67.3676 113.905C70.5363 113.905 72.8518 116.119 72.8518 119.511ZM67.3676 115.936C65.7224 115.936 64.524 116.992 64.2803 118.576H70.4347C70.2316 117.012 69.0332 115.936 67.3676 115.936ZM77.5272 122.842H83.6613V124.873H74.2977V123.268L80.249 116.058H74.4196V114.027H83.4989V115.631L77.5272 122.842ZM90.1453 113.905C93.2733 113.905 95.0811 115.387 95.0811 118.515V124.873H92.6843V123.553C92.0749 124.487 90.8969 125.015 89.2719 125.015C86.7939 125.015 85.2299 123.654 85.2299 121.765C85.2299 119.958 86.4486 118.536 89.7391 118.536H92.5421V118.373C92.5421 116.891 91.6484 116.017 89.8407 116.017C88.622 116.017 87.3627 116.423 86.5502 117.094L85.5549 115.245C86.7127 114.352 88.3985 113.905 90.1453 113.905ZM89.8 123.167C91.0391 123.167 92.1156 122.598 92.5421 121.481V120.222H89.9219C88.1954 120.222 87.7283 120.872 87.7283 121.664C87.7283 122.578 88.5001 123.167 89.8 123.167Z" fill="black"/>
<path d="M74.0128 58.3999C73.5755 58.1658 73.0307 58.3302 72.7963 58.7676C72.4157 59.478 71.9754 60.1543 71.4839 60.7903C70.3569 59.3656 68.7687 58.3109 66.9027 57.85L62.4505 56.7498V53.043C63.8419 52.2257 65.1653 51.1573 66.3372 49.8786C66.6725 49.5127 66.6477 48.9443 66.2818 48.6089C65.916 48.2737 65.3477 48.2984 65.0121 48.6643C62.5104 51.3939 59.1387 53.0897 56.2126 53.0897C54.5618 53.0897 52.9725 52.6416 51.5057 51.8748C51.3885 51.7584 51.2393 51.6748 51.0727 51.6369C47.7935 49.7521 45.179 46.2858 43.9473 42.7593C49.0139 41.7567 53.1547 38.8805 55.7997 36.5661C58.07 34.5797 60.0818 32.2479 61.4752 30.0413C62.2703 34.8047 64.4903 39.3549 68.939 41.1792C68.5442 42.8319 67.9258 44.3907 67.0965 45.8223C66.8476 46.2517 66.9941 46.8015 67.4234 47.0503C67.853 47.2991 68.4027 47.1526 68.6514 46.7233C69.549 45.1741 70.2215 43.4925 70.6579 41.7131C71.0875 41.8095 71.529 41.8836 71.9835 41.9325C72.4779 41.9865 72.92 41.6285 72.9731 41.1351C73.0261 40.6417 72.6691 40.1986 72.1757 40.1455C71.3518 40.057 70.5796 39.878 69.8598 39.6092C69.8592 39.609 69.8586 39.6087 69.858 39.6086C69.7558 39.5704 69.6548 39.5305 69.5547 39.4887C69.554 39.4884 69.5534 39.4881 69.5527 39.4879C66.682 38.2883 64.9688 35.7171 63.9851 32.7525C63.98 32.7374 63.975 32.7223 63.97 32.7071C62.9911 29.7298 62.9741 26.9757 62.9741 26.9472C62.9741 26.5154 62.6665 26.144 62.2419 26.0637C61.8164 25.9833 61.396 26.2165 61.2383 26.6187C59.1469 31.9517 51.2501 39.9331 42.6562 41.157C42.6495 41.158 42.643 41.1598 42.6364 41.161C41.8903 41.2653 41.1265 41.3239 40.3459 41.3239C39.8496 41.3239 39.4473 41.7261 39.4473 42.2225C39.4473 42.7189 39.8496 43.1211 40.3459 43.1211C40.9486 43.1211 41.5467 43.0894 42.1395 43.0296C43.5033 47.2967 45.9771 50.0131 47.8642 51.5638C48.5396 52.1188 49.2477 52.6109 49.9743 53.0359V56.7372L45.4665 57.8507C44.9213 57.9856 44.3971 58.1719 43.8969 58.4075V52.8718C43.8969 51.3161 42.0015 49.6699 40.3786 48.733C39.2525 48.0827 38.0783 47.6444 37.0724 47.4987C35.3404 47.2483 34.6594 47.94 34.4064 48.3776C34.2599 48.6328 34.1856 48.919 34.1856 49.2282V60.767C33.4859 61.1013 33 61.814 33 62.6397V66.8453C33 67.3417 33.4023 67.7439 33.8986 67.7439C34.3949 67.7439 34.7972 67.3417 34.7972 66.8453V65.9136H43.285V73.2698C43.285 73.4238 43.1598 73.549 43.0058 73.549H35.0764C34.9224 73.549 34.7972 73.4238 34.7972 73.2698V70.4397C34.7972 69.9433 34.3949 69.5411 33.8986 69.5411C33.4023 69.5411 33 69.9433 33 70.4397V73.2698C33 74.4147 33.9314 75.3462 35.0764 75.3462H43.0058C44.1508 75.3462 45.0822 74.4147 45.0822 73.2698V70.8454H72.6578C72.906 70.8454 73.1431 70.7429 73.313 70.562C73.4829 70.381 73.5702 70.1379 73.5548 69.8904L73.2768 65.4824C73.208 64.3899 72.9324 63.3524 72.4876 62.4091C73.2119 61.5476 73.848 60.6114 74.381 59.6165C74.6149 59.179 74.4503 58.6343 74.0128 58.3999ZM42.0926 52.8147C41.7349 52.9452 40.3871 52.843 38.6008 51.8115C36.8661 50.8101 36.0657 49.7083 35.9889 49.286C37.5331 48.7228 41.8787 51.5591 42.0926 52.8147ZM35.9826 52.1497C36.5265 52.6205 37.131 53.0383 37.7021 53.3679C38.9334 54.0789 40.6998 54.7877 42.0994 54.6336V60.5628H35.9825L35.9826 52.1497ZM43.2847 64.1157H34.7969V62.6393C34.7969 62.4853 34.9221 62.3601 35.076 62.3601C42.3976 62.3603 42.9627 62.3603 42.9964 62.3603C42.9972 62.3603 42.9977 62.3603 42.998 62.3603C42.9996 62.3603 43.0011 62.3601 43.0027 62.3601H43.0056C43.1595 62.3601 43.2847 62.4853 43.2847 62.6393V64.1157ZM45.0819 69.0481V65.019C45.0819 65.0175 45.0821 65.016 45.0821 65.0144C45.0821 65.0127 45.0819 65.0114 45.0819 65.0097V62.6393C45.0819 61.8135 44.5963 61.1011 43.8965 60.7667V60.4605C44.5094 60.0641 45.1802 59.7723 45.8976 59.5947L50.6855 58.4122C51.3247 58.2542 51.7712 57.684 51.7712 57.0258V53.933C53.2613 54.5536 54.7792 54.8868 56.2125 54.8868C57.6667 54.8868 59.1771 54.5559 60.653 53.9415V57.0389C60.653 57.6961 61.0988 58.2661 61.7388 58.4253L66.4715 59.5947C68.2486 60.0337 69.7057 61.157 70.5849 62.6534C70.608 62.7047 70.6362 62.754 70.6692 62.8009C71.1332 63.6394 71.419 64.5879 71.4826 65.5952L71.7003 69.0481H45.0819Z" fill="black"/>
<path d="M77.3442 22.1081C75.2396 21.5369 74.5861 20.8836 74.0151 18.7787C73.8466 18.1584 73.3014 17.7418 72.6584 17.7418C72.0155 17.7418 71.4702 18.1585 71.3017 18.7789C71.1381 19.3823 70.9654 19.8556 70.766 20.2379C70.6535 20.1198 70.5401 20.0026 70.4248 19.8873C66.6281 16.0907 61.5809 13.9999 56.2129 13.9999C45.1301 13.9999 36.1138 23.0163 36.1138 34.099V44.9184C36.1138 45.4147 36.5161 45.817 37.0124 45.817C37.5087 45.817 37.911 45.4148 37.911 44.9184V34.099C37.911 24.0073 46.1211 15.7972 56.2129 15.7972C61.1009 15.7972 65.6966 17.7012 69.1537 21.1582C69.2754 21.2798 69.3949 21.404 69.5131 21.529C69.1182 21.7464 68.6209 21.932 67.9722 22.1081C67.3519 22.2766 66.9353 22.8219 66.9353 23.4648C66.9353 24.1077 67.352 24.653 67.9724 24.8215C70.077 25.3925 70.7305 26.0459 71.3017 28.1515C71.4703 28.7708 72.0155 29.1869 72.6582 29.1869C73.0757 29.1869 73.4512 29.0106 73.71 28.7174C74.2438 30.45 74.5147 32.252 74.5147 34.099V42.1027C74.5147 42.5991 74.917 43.0013 75.4133 43.0013C75.9097 43.0013 76.312 42.5991 76.312 42.1027V34.099C76.312 31.4061 75.7891 28.7991 74.7586 26.3419C75.2534 25.6098 75.9835 25.1909 77.3443 24.8215L77.3448 24.8212C77.9642 24.6526 78.3803 24.1075 78.3803 23.4648C78.3803 22.8221 77.9642 22.2769 77.3442 22.1081ZM72.9553 25.8643C72.9534 25.8682 72.9515 25.8721 72.9495 25.876C72.9485 25.8778 72.9475 25.8796 72.9467 25.8815C72.8447 26.079 72.7484 26.2921 72.6571 26.5233C72.0427 24.9777 71.1442 24.0796 69.5987 23.4654C70.391 23.1521 70.99 22.775 71.4716 22.2953C71.4749 22.2921 71.4778 22.2887 71.4809 22.2854C71.4851 22.281 71.4891 22.2767 71.4933 22.2723C71.9709 21.7901 72.347 21.1927 72.6587 20.4051C73.2724 21.9498 74.1698 22.8481 75.7128 23.4624C74.5416 23.9218 73.6128 24.6008 72.9553 25.8643Z" fill="black"/>
<path d="M85.492 64.8214L82.0136 55.2646C81.9137 54.99 81.7513 54.75 81.5415 54.5584L82.5084 46.9637C82.6455 45.8886 82.2217 44.8427 81.375 44.1661C80.5284 43.4895 79.4148 43.3067 78.3961 43.6775L76.1646 44.4897C76.1623 44.4906 76.1599 44.4909 76.1577 44.4918L72.9089 45.6742C72.9068 45.6749 72.9048 45.6761 72.9027 45.6768L70.6708 46.4892C69.6523 46.86 68.9167 47.7156 68.7029 48.7782C68.4893 49.8408 68.8369 50.9144 69.6329 51.65L75.2554 56.8462C75.2178 57.1278 75.2477 57.416 75.3476 57.6907L76.4051 60.596C76.4053 60.5964 76.4054 60.5968 76.4055 60.5973C76.4056 60.5975 76.4057 60.5977 76.4059 60.598L78.826 67.2473C79.8974 70.1918 84.0354 70.4035 85.3736 67.5333C85.774 66.6749 85.8161 65.7117 85.492 64.8214ZM76.3648 55.4247L70.8526 50.3305C70.5156 50.0191 70.3745 49.5827 70.4649 49.1329C70.5554 48.6831 70.8544 48.3353 71.2855 48.1784L71.9511 47.9361C72.0375 48.7044 72.3266 49.5534 72.7784 50.2696L73.792 51.8767C73.9628 52.1477 74.2546 52.2961 74.5529 52.2961C74.7167 52.2961 74.8826 52.2513 75.0315 52.1574C75.4512 51.8927 75.577 51.3378 75.3122 50.9179L74.2987 49.3107C73.8019 48.5233 73.6844 47.6388 73.7274 47.2896L76.5693 46.2552C76.8268 46.4951 77.3053 47.2482 77.4309 48.1708L77.6875 50.0534C77.7547 50.5451 78.2098 50.8896 78.6993 50.8225C79.191 50.7554 79.5353 50.3023 79.4684 49.8107L79.2117 47.9282C79.0973 47.089 78.7731 46.2528 78.3454 45.6088C78.6862 45.5627 79.456 44.933 80.2531 45.5702C80.6115 45.8566 80.7838 46.2817 80.7257 46.7367L79.7777 54.1825C79.7607 54.1881 79.7436 54.1922 79.7267 54.1983L76.4141 55.404C76.3971 55.4101 76.3813 55.4181 76.3648 55.4247ZM77.1878 57.4921L80.4761 56.2953L81.0752 57.9414L77.7869 59.1383L77.1878 57.4921ZM81.4194 67.6203C80.9959 67.4228 80.6745 67.0721 80.5147 66.6329L78.4016 60.8272L81.69 59.6304L83.8032 65.4361C84.3393 66.9089 82.8173 68.2719 81.4194 67.6203Z" fill="black"/>
</svg>
